X: 25
T:Because I Was a Bonnie Lad (#225)
M:4/4
L:1/8
S:Aird's Selections 1782-97
R:Reel
K:A
e||"tr"c>BAa (3fga ec|d>fec B3 B|cBAa (3fga ec|d>fec A2 A:|
e|"tr"c>BAc defd|cAec (3BBB B2|c>BAc def^g|afec (3AAA A2|
cAeA fAea|cAec (3BBB Bf/2^g/2|af^ge fdec|dfec (3AAA A||

